X:1
T:Four Pieces For Horn - Romance
T:Four Pieces For Horn - Romance
T:Op. 35, No. 6
T:Reinhold Gliere
C:Reinhold Gliere
%%score 1 { ( 2 3 7 ) | ( 4 5 6 ) }
L:1/8
Q:1/4=58
M:4/4
K:Eb
V:1 treble transpose=-7 nm="Horn" snm="F Hn."
V:2 treble nm="Piano" snm="Pno."
V:3 treble 
V:7 treble 
V:4 bass 
V:5 bass 
V:6 bass 
V:1
[K:Bb]"^Andante" z8 | z4 z2 z!p!"_espress." (D | F3 G ABGA | F3) (G- G A2 B) | d3 D- D(=E- (3EFG) | %5
"_cresc." (A3 !tenuto!A) A3 (A |!mf! c3 d =efde) | c4- c2!p! (F2 | _A3 B c_dBc) | %9
!>(! _A4- A2 z2!>)![Q:1/4=25]"^\n" |[Q:1/4=58]"^\n" z8 | z8 | z8 | z4 z2 z!mf! (A, | C3 D =EFDE | %15
 C3) (A _A C2 D) | G4- G (A,2 B, |!>(! F8-)!>)! |!p! F z z2 z4 | %19
 z4 (3z!p!!<(! (=B,^C (3DF3/2c/)!<)! |!mf!!>(! (c6!>)! =B2) |!>(! =E4-!>)!!p! E z z2 | z8 | %23
 z4 (3z!mf!!<(! (D=E (3F_A3/2!<)!_e/) |!>(! (_e6 d2)!>)! |!mp! G6!<(! (G2 | %26
 B2-!<)!!>(! (3B_AE!>)! C3)!<(! (E | =E3 =A)!<)! A4 | %28
"_rit."[Q:1/4=55] (_E3[Q:1/4=52] G)[Q:1/4=49] G4-[Q:1/4=46][Q:1/4=43] | %29
 (3G!p!"^Solo"[Q:1/4=81](A,B, (3=B,CD E3 G) | (3z[Q:1/4=90]!mp!"_cresc."!<(! (CD (3EF^F G3 c) | %31
 (3z[Q:1/4=93]!mf! (EF (3^FGc!<(! d e2 G) |[Q:1/4=91] (d =B2 c)!<)!!<)!!f!!>(! e4-!>)! | %33
 e[Q:1/4=75]!mp!"_dolce" (E2 G) (d3 c- | c) (C2 E)[Q:1/4=70] (B3 A- | %35
"_rit." A)[Q:1/4=58]!>(! (G2 =B,2!>)!!p! !fermata!C2)!mp! (D |"_a tempo" F3 G ABGA | %37
 F3) (G- G A2 B) | d3 D- D(=E- (3EFG) | (A3 !tenuto!A) A3!>(! A- | A4!>)!!p!!<(! ^G4- | %41
!mp! G(A!<)!!mf!!>(! (3=edc A3 _A)!>)! |!p! _A4!<(! G4- | G(_A!<)!!>(! (3e_d_A F2)!>)! z!f! F | %44
 (F3 G ABGA) | F3 (G- G A2 B) | d3 D- D(=E- (3EFG) | (A3 !tenuto!A) !tenuto!A3 !tenuto!A | %48
 !tenuto!c3"_cresc." !tenuto!d !tenuto!=e!tenuto!f!tenuto!d!tenuto!e | %49
 !tenuto!c3 (a _a)!<(! (c2 d)!<)! |!>(! g3!>)! g- g!<(! (=B2 ^c)!<)! | %51
!ff!"_dim." f3 f- f!f! (A2 B) | d2!mf! (G2-[Q:1/4=50] G!>(! _G2[Q:1/4=47] F)!>)! | %53
!p![Q:1/4=54] (F3[Q:1/4=58] G ABGA |"_dim." F3)!pp! B, B,4- | %55
!>(! B,6- B, z!>)![Q:1/4=52][Q:1/4=44][Q:1/4=36][Q:1/4=30] |] %56
V:2
!p!!<(! G8-!<)! | G8 | ([G,EG]4 [=A,C^F]4) | A2 G2 ^F2 G2 | (G4 =A4) |"_cresc." [DG]6- [DG] z | %6
!mf! D4 ^C4- | C(D (3=AGF"_dim." D3!p! _D) | [B,_D]4 =A,4- | %9
 A,!<(!(B, (3_A_G_D B,3)"_rit." [=DAB]!<)! |!mf! ([B,EGB]3 [Cc] [Dd][Ee][Cc][Dd]) | %11
!<(! [B,EGB]3 [Cc]- [Cc] [Dd]2 [Ee]!<)! | [Gceg]3 (G- G=A- (3ABc) |!>(! (d3 !tenuto!d) d4!>)! | %14
 [FBd]4 ([^CG^c]4 | [DFBd]4 [_D_d]4) | ([CEc]2- (3[CEc]CE) [CGc]2- (3[CGc](CE) | %17
 [B,C^FB]4 (3z FB- (3Bdb | %18
!p! (3[Bdb]"_cresc."[B,D][B,D]- (3[B,D][B,D][B,D]- (3[B,D][B,D][B,D]- (3[B,D][B,D][B,D]- | %19
 (3[B,D][DBd][DBd]- (3[DBd][DBd][DBd]- (3[DBd][DBd][DBd]- (3[DBd][DBd][DBd] | %20
 (3z (G=A (3(B^cb!mf! [Ac=a]4-)) | [Aca]2!>(! ([F=Af]2 [=EA=e]2 [DAd]2)!>)! | %22
!mf! (3[DFB_d]"_cresc."[DF][DF]- (3[DF][DF][DF]- (3[DF][DF][DF]- (3[DF][DF][DF]- | %23
 (3[DF][F_df][Fdf]- (3[Fdf][Fdf][Fdf]- (3[Fdf][Fdf][Fdf]- (3[Fdf][Fdf][Fdf] | %24
 (3z (Bc (3_d=e(_d'!f!!>(! [cec']4-)) | [cec']2 (!tenuto![Aca]2 !tenuto![Gcg]2 !tenuto![Fcf]2) | %26
 (3z!>)!!mp! [FAf][FAf]- (3[FAf][FAf][FAf]- (3[FAf][FAf][FAf]- (3[FAf][FAf][FAf] | %27
 (3z"_dim." [F=Bf][FBf]- (3[FBf][FBf][FBf]- (3[FBf][FBf][FBf]- (3[FBf][FBf][FBf] | %28
"_rit." (3z [FAdf][FAdf]- (3[FAdf][FAdf][FAdf]- (3[FAdf][FAdf][FAdf]- (3[FAdf][FAdf][FAdf]- | %29
!p! [FAdf] z z2 z4 | z8 | z8 | z8 | z8 | z8 |"_rit." z8 |"^a tempo"!mp! z2 (3G,B,E z2 (3^F,=A,C | %37
 z2 (3G,B,E z2 (3EGB | z2 (3G,CG z2 (3EGc | z2 (3z DG z2 (3z DE |"_espress." (F3 G =ABGA | %41
 F4-) F3 (B, | _D3 E F_GEF) |"_cresc." _D6- D>!f!B | %44
 ([B,EGB][Cc][DGBd][Ee] [^F=Ac^f][cc'][Ace=a][Ff]) | %45
 ([GBeg][Aa][Gegb][cc'] [degd'][cc'][Bceb][Gg]) | %46
 ([FGcf][Ee][DEGd][Cc] [B,CEB][=A,=A][G,CEG][^F,^F]) | %47
 ([G,DG][dg])([dg][Gd]) ([DG][Gd])([Gd][dg]) | %48
 ([FBdf][Gg][=Adf=a][Bb]"_cresc." [^c=eg^c'][gg'][egb=e'][cc']) | %49
 ([dfad'][cc'][Bdfb][Aa] [GB_dg][Aa][=Adf=a][Bb]) | %50
 ([cegc'][dd'][egc'e'][gg'] [^fc'd'^f'][gg'][^gd'f'^g'][=a=a']) | %51
!ff! ([bd'f'b']"_dim."[=a=a'][gbd'g'][ff'] [egbe'][dd'][cegc'][Bb]) | %52
 ([Gceg][Aa][Begb][cc']) ([Gg]3 !tenuto![Gg]) |!p! !arpeggio![GBeg]4 !arpeggio![^F=Ac^f]4 | %54
 !arpeggio![GBeg] ([Bb]2 [cc'] [dd'][ee'][cc'][dd']) | [Begb]6- [Begb] z |] %56
V:3
 G,4 (([G,-C]4 | [G,^C]4!>(! [_A,D]4))!>)! | x8 | [B,E]8 | [CE]8 | (C2 B,2 =A,2 B,) z | x8 | x8 | %8
 x8 | z4 z2 z z/ [B,B]/ | x8 | x8 | x8 | (c2 B2 =A2 B2) | D z z2 z4 | z4 (F3 _F) | x8 | x8 | x8 | %19
 x8 | x8 | x8 | x8 | x8 | x8 | x8 | x8 | x8 | x8 | x8 | x8 | x8 | x8 | x8 | x8 | x8 | x8 | x8 | %38
 x8 | x8 | x8 | x8 | x8 | x8 | x8 | x8 | x8 | !tenuto!C2 x2 x4 | x8 | x8 | x8 | x8 | x4 d4 | x8 | %54
 x8 | x8 |] %56
V:4
 z4 ([A,,,A,,]4 | [=A,,,=A,,]4 [B,,,B,,]4) | ([E,,B,,]4 E,4 | [E,,B,,]8) | [C,G,]8 | %5
 [G,,D,]6- [G,,D,] z | B,8- | [B,,F,B,]4- [B,,F,B,]2 z2 | [_G,,_G,]8 | %9
 [_G,,_D,_G,]4- [G,,D,G,]2 z2 | (3(E,,B,,E, (3:2:2G, B,2 [E,^F,=A,]4) | %11
 (3(E,,B,,E, (3:2:2G, (B,2- [G,B,]4)) | (3(C,,E,G, (3:2:2C (E2- [CE]4)) | %13
 (3(G,,,G,,D,- (3D,G,B, (3DG,D,- (3D,G,,G,,,) | (3B,,,D,F, (3:2:2B, D2 ([=E,B,-]4 | %15
 (3[F,B,])(B,,,F,, (3D,F,B,) (3(E,,B,,G, B,2) | (3A,,-E,-A,- [A,,E,A,]2 (3A,,-E,-G,- [A,,E,G,]2 | %17
 (3D,,D,^F,- (3F,B,D- (3D z z z2 | G,,8- | G,, z z2 z4 | [=A,,,=A,,]8 | %21
 (3[D,,D,][F,=A,][F,A,]- (3[F,A,][F,A,][F,A,]- (3[F,A,][F,A,][F,A,]- (3[F,A,][F,A,][F,A,] | %22
 [B,,,B,,]8- | (3[B,,,B,,A,]=A,C- (3CA,B, _D4 | %24
 (3z [B,=E][B,E]- (3[B,E][B,E][B,E]- (3[B,E][B,E][B,E]- (3[B,E][B,E][B,E] | %25
 (3[F,,F,][A,C][A,C]- (3[A,C][A,C][A,C]- (3[A,C][A,C][A,C]- (3[A,C][A,C][A,C] | %26
 (3(_D,,A,,F,- (3F,A,C E2 _DC) | [G,,F,=B,]4- (3[G,,F,B,](G,,G,,, (3G,,F,B,) | %28
{_B,,,-_B,,-A,-} [B,,,B,,A,D]8- | [B,,,B,,A,D] z z2 z4 | z8 | z8 | z8 | z8 | z8 | z8 | %36
 (3E,,B,,E, z2 (3E,,C,E, z2 | (3E,,B,,E, z2 (3E,G,B, z2 | (3C,,G,,C, z2 (3C,G,C z2 | %39
 (3G,,D,C !tenuto!B,2 (3!tenuto!=A,G,D, !tenuto!B,2 | (3z (DF, (3B,D,B,,) (3z (^CG, (3B,=E,B,,) | %41
 (3z (DF, (3B,D,B,,) (3z (D,F,, (3B,,F,,B,,,) | (3z (B,_D, (3_G,B,,_G,,) (3z (=A,E, (3G,C,G,,) | %43
 (3z (B,_D, (3_G,B,,_G,,) (3z (B,G,, (3_F,,A,B,,) | %44
 (3(E,,B,,G,- (3G,E,B,,) (3(E,,=A,,^F,- (3F,E,A,,) | %45
 (3(E,,B,,G,- (3G,E,B,,) (3(G,,E,B,- (3B,G,E,) | (3(C,,G,,E,- (3E,C,G,,) (3(E,,C,G,- (3G,E,C,) | %47
 (3z (G,D,) (3z (G,D,) (3z (G,D,) (3z (G,D,) | (3(B,,F,D- (3DB,F,) (3(B,,=E,^C- (3CB,E,) | %49
 (3z [A,DF][A,DF]- (3[A,DF][A,DF][A,DF] (3z [G,_DF][G,DF]- (3[G,DF][G,DF][G,DF] | %50
 (3z [G,CEG][G,CEG]- (3[G,CEG][G,CEG][G,CEG] (3z [^F,C^F][F,CF]- (3[F,CF][F,CF][F,CF] | %51
 (3z [F,B,DF][F,B,DF]- (3[F,B,DF][F,B,DF][F,B,DF] (3z [G,B,EG][G,B,EG]- (3[G,B,EG][G,B,EG][G,B,EG] | %52
 (3z [E,A,CE][E,A,CE]- (3[E,A,CE][E,A,CE][E,A,CE] (3z [D,A,D][D,A,D]- (3[D,A,D][D,A,D][D,A,D] | %53
 !arpeggio![E,,B,,G,]4 !arpeggio![E,=A,C]4 | %54
 !arpeggio![E,G,B,E]4[K:treble] !arpeggio![=A,CE^F=A]4 | %55
 (3([B,EG][K:bass]!mp!!>(!E,,B,, (3G,B,E G2- G) z!>)! |] %56
V:5
 x8 | x8 | x8 | x8 | x8 | x8 | (F,4 =E,4) | x8 | (_D,4 C,4) | x8 | x8 | x8 | x8 | x8 | x8 | x8 | %16
 x8 | x8 | z2"_espress. molto" (!tenuto!D,2 !tenuto!E,2 !tenuto!=E,2) | (3F,^F,=A,- (3A,F,G, B,4 | %20
 (3z [G,^C][G,C]- (3[G,C][G,C][G,C]- (3[G,C][G,C][G,C]- (3[G,C][G,C][G,C] | x8 | %22
 z2 (!tenuto!F,2 !tenuto!_G,2 !tenuto!=G,2) | x8 | [C,,C,]8 | x8 | x8 | x8 | x8 | x8 | x8 | x8 | %32
 x8 | x8 | x8 | x8 | x8 | x8 | x8 | x2 x2 =A,2 x2 | x8 | x8 | x8 | x8 | [E,,,E,,]4 [E,,,E,,]4 | %45
 [E,,,E,,]8 | [C,,,C,,]4 [E,,,E,,]4 | x2 !tenuto!B,2 !tenuto!=A,2 !tenuto!B,2 | %48
 [B,,,B,,]4 [B,,,B,,]4 | [B,,,B,,]4 [E,,,E,,]4 | [A,,,A,,]4 [D,,,D,,]4 | [G,,,G,,]4 [C,,C,]4 | %52
 [F,,,F,,]4 [B,,,B,,]4 | x8 | x4[K:treble] x4 | x2/3[K:bass] x22/3 |] %56
V:6
 x8 | x8 | x8 | x8 | x8 | x8 | B,,4- B,,4 | x8 | x8 | x8 | x8 | x8 | x8 | x8 | x8 | x8 | x8 | x8 | %18
 x8 | x8 | x8 | x8 | x8 | x8 | x8 | x8 | x8 | x8 | x8 | x8 | x8 | x8 | x8 | x8 | x8 | x8 | x8 | %37
 x8 | x8 | x8 | x8 | x8 | x8 | x8 | x8 | x8 | x8 | [G,,,G,,]8 | x8 | x8 | x8 | x8 | x8 | x8 | %54
 x4[K:treble] x4 | x2/3[K:bass] x22/3 |] %56
V:7
 x8 | x8 | x8 | x8 | x8 | x8 | x8 | x8 | x8 | x8 | x8 | x8 | x8 | [DG]8 | x8 | x8 | x8 | x8 | x8 | %19
 x8 | x8 | x8 | x8 | x8 | x8 | x8 | x8 | x8 | x8 | x8 | x8 | x8 | x8 | x8 | x8 | x8 | x8 | x8 | %38
 x8 | x8 | x8 | x8 | x8 | x8 | x8 | x8 | x8 | x8 | x8 | x8 | x8 | x8 | x8 | x8 | x8 | x8 |] %56

